!!!!SEGMENT: pl-kk--kk-i-387--007_anonim--ave-regina-coelorum.krn
!!!cenid: 18xx:1421
!!!COM: Anonim
!!!COM-rismID:
!!!CDT:
!!!CNT:
!!!OTL: Ave Regina coelorum
!!!PDT:
!!!AGN: Sacred
!!!SMS-siglum: PL-Kk
!!!SMS-shelfmark: Kk.I.387
!!!SMS-shelfwork: 007 W
!!!SMS-variant:
!!!SMS-altvar:
!!!NIFC-rismSourceID: 1001138804
!!!NIFC-islandoraID: pl-kk:16102
!!!URL-pdf-islandora: https://repozytorium.nifc.pl/islandora/object/pl-kk%3A16102/datastream/PDF/view
!!!URL-scan:
!!!ONB-nifc:
!!!AIN: 1 alto 1 bass 1 soprn 1 tenor
!!!key:
**kern	**text	**dynam	**kern	**text	**kern	**text	**kern	**text
*part4	*part4	*part4	*part3	*part3	*part2	*part2	*part1	*part1
*staff4	*staff4	*	*staff3	*staff3	*staff2	*staff2	*staff1	*staff1
*Ibass	*	*	*Itenor	*	*Ialto	*	*Isoprn	*
*I"Basso.	*	*	*I"Tenore.	*	*I"Alto.	*	*I"Soprano.	*
*I'B.	*	*	*I'T.	*	*I'A.	*	*I'S.	*
*group1	*	*	*group1	*	*group1	*	*group1	*
*clefF4	*	*	*clefC4	*	*clefC3	*	*clefC1	*
*k[b-e-a-d-]	*	*	*k[b-e-a-d-]	*	*k[b-e-a-d-]	*	*k[b-e-a-d-]	*
*A-:	*	*	*A-:	*	*A-:	*	*A-:	*
*M3/4	*	*	*M3/4	*	*M3/4	*	*M3/4	*
*	*	*	*	*	*	*	*>[A,B,B,C]	*
=1	=1	=1	=1	=1	=1	=1	=1	=1
*>A	*	*	*>A	*	*>A	*	*>A	*
*2\right	*	*	*2\right	*	*2\right	*	*2\right	*
!	!	!	!LO:TX:t=P:problem=2\right&colon; global	!	!	!	!LO:TX:t=P:problem=2\right&colon; global	!
2AA-/	A-	.	2c\	A-	4r	.	2ee-\	A-
.	.	.	.	.	4r	.	.	.
!LO:TX:t=P:problem=all\right&colon; global	!	!	!LO:TX:t=P:problem=all\right&colon; global	!	!LO:TX:t=P:problem=all\right&colon; global	!	!LO:TX:t=P:problem=all\right&colon; global	!
8A-\	-ve	.	8e-\	-ve	4a-\	Re-	8cc\	-ve
8A-\	Re-	.	8e-\	Re-	.	.	8cc\	Re-
=2	=2	=2	=2	=2	=2	=2	=2	=2
!	!	!	!	!	!LO:TX:t=P:problem=2\right&colon; global	!	!	!
4F\	-gi-	.	(4d-\	-gi-	2a-\	-gi-	4dd-\	-gi-
4E-\	-na	.	4c\)	-na-	.	.	4ee-\	.
8D-\	An-	.	8c-X\	-na	8a-\	-na	8ff\	-na
8D-\	-ge-	.	8c-\	Ce-	8a-\	Ce-	8ff\	Ce-
=3	=3	=3	=3	=3	=3	=3	=3	=3
!LO:TX:t=P:problem=2\right&colon; global	!	!	!	!	!	!	!	!
2.E-\	-lo-	.	2.B-\	-lo-	8a-\L	-lo-	2ee-\	-lo-
.	.	.	.	.	8g\	.	.	.
.	.	.	.	.	8f\	.	.	.
.	.	.	.	.	8e-\	.	.	.
.	.	.	.	.	.	.	8qee-/	.
.	.	.	.	.	8f\	.	4dd-\	.
.	.	.	.	.	8g\J	.	.	.
=4	=4	=4	=4	=4	=4	=4	=4	=4
2AA-/	-rum,	.	4A-\	-rum	4a-\	.	4cc\	-rum,
.	.	.	4r	.	8e-\	-rum	4r	.
.	.	.	.	.	8a-\L	a-	.	.
8A-\	a-	.	4r	.	8g\	.	4cc\	a-
8A-\	-ve	.	.	.	8a-\J	-ve	.	.
!LO:LB:g=original	!	!	!LO:LB:g=original	!	!LO:LB:g=original	!	!LO:LB:g=original	!
=5	=5	=5	=5	=5	=5	=5	=5	=5
2G\	Do-	.	4r	.	4b-\	a-	4ee-\	.
.	.	.	8r	.	4e-\	-ve	8b-\	-ve
.	.	.	8B-\	a-	.	.	8r	.
8G\	-mi-	.	8An\L	-ve	4r	.	8ee-\	a-
8G\	-na	.	8B-\J	.	.	.	8ee-\	-ve
=6	=6	=6	=6	=6	=6	=6	=6	=6
2F\	An-	.	4c\	Do-	4a-\	Do-	4aa-\	Do-
.	.	.	8dn\	-mi-	8a-\	-mi-	8aa-\	-mi-
.	.	.	8d\	-na	8a-\	-na	8aa-\	-na
4E-\	-ge-	.	8e-\	An-	8b-\	An-	8gg\	An-
.	.	.	8e-\	-ge-	8b-\	-ge-	8gg\	-gie-
=7	=7	=7	=7	=7	=7	=7	=7	=7
2.B-\	-lo-	.	8e-\L	-lo-	2.a-\	-lo-	2.ff\	-lo-
.	.	.	8dn\	.	.	.	.	.
.	.	.	8c\	.	.	.	.	.
.	.	.	8B-\	.	.	.	.	.
.	.	.	8c\	.	.	.	.	.
.	.	.	8d\J	.	.	.	.	.
=8	=8	=8	=8	=8	=8	=8	=8	=8
4E-\	-rum,	.	4e-\	-rum,	4g\	-rum	4ee-\	-rum,
4r	.	.	4r	.	4b-\	An-	8r	.
.	.	.	.	.	.	.	8ee-\L	sal-
8G\	sal-	.	4r	.	4d-X\	-ge-	8ddn\J	.
8G\	-ve	.	.	.	.	.	8ee-\	-ve
!	!	!	!LO:LB:g=original	!	!	!	!LO:LB:g=original	!
=9	=9	=9	=9	=9	=9	=9	=9	=9
2A-\	Ra-	.	4r	.	2.c\	-lo-	4.ee-\	Ra-
.	.	.	4r	.	.	.	.	.
.	.	.	.	.	.	.	8cc\	-dix
4A-\	-dix	.	8g-X\	sal-	.	.	8dd-X\	sal-
.	.	.	8g-\	-ve	.	.	8ee-\	-ve
=10	=10	=10	=10	=10	=10	=10	=10	=10
2D-\	sal-	.	4f\	por-	2d-\	-rum,	4.ff\	Por-
.	.	.	4d-\	-ta	.	.	.	.
.	.	.	.	.	.	.	8ff\	-ta
4D-\	-ve	.	8r	.	4r	.	8een\	ex
.	.	.	8f\	ex	.	.	8ff\	qua
!LO:LB:g=original	!	!	!	!	!LO:LB:g=original	!	!	!
=11	=11	=11	=11	=11	=11	=11	=11	=11
2C/	Por-	.	2.en\	qua	4r	.	4.gg\	Mun-
.	.	.	.	.	4r	.	.	.
.	.	.	.	.	.	.	8een\	-do
4C/	-ta,	.	.	.	8b-\	lux	8ff\	Lux
.	.	.	.	.	8b-\	est	8gg\	est
=12	=12	=12	=12	=12	=12	=12	=12	=12
2F\	ex	.	2f\	ex	4a-\	or-	4.aa-\	or-
.	.	.	.	.	8f\	-ta,	.	.
.	.	.	.	.	8r	.	8a-\	-ta
4E-\	qua	.	4c\	qua	8g-X\	ex	8a-\	ex
.	.	.	.	.	8g-\	qua	8a-\	qua
!	!	!	!	!	!	!	!LO:LB:g=original	!
=13	=13	=13	=13	=13	=13	=13	=13	=13
2.D-\	mun-	.	2.d-\	mun-	2.a-\	Mun-	2.ff-X\	mun-
=14	=14	=14	=14	=14	=14	=14	=14	=14
2AA-/	-do,	.	4c\	-do,	4a-\	-do	4ee-\	-do,
.	.	.	8r	.	8r	.	8r	.
.	.	.	8e-\L	lux	8a-\L	lux	8cc\	lux
8D-\	lux	.	8d-\	.	8f\J	.	8b-\	.
8D-\	est	.	8f\J	est	8b-\	est	8dd-\	est
!	!	!	!LO:LB:g=original	!	!	!	!	!
=15	=15	=15	=15	=15	=15	=15	=15	=15
2.E-\	or-	.	2e-\	or-	2a-\	or-	2cc\	or-
.	.	.	4d-\	.	4g\	.	4b-\	.
!	!	!	!	!	!LO:LB:g=original	!	!	!
=16!|:	=16!|:	=16!|:	=16!|:	=16!|:	=16!|:	=16!|:	=16!|:	=16!|:
*>B	*	*	*>B	*	*>B	*	*>B	*
4AA-/	-ta.	.	4c\	-ta,	4e-\	-ta	4a-\	-ta,
4r	.	.	8r	.	4r	.	4r	.
.	.	.	8c\	gau-	.	.	.	.
4r	.	.	8B-\L	.	4r	.	4r	.
.	.	.	8A-\J	-de	.	.	.	.
!LO:LB:g=original	!	!	!	!	!	!	!	!
=17	=17	=17	=17	=17	=17	=17	=17	=17
!	!	!	!	!	!LO:N:vis=0	!	!	!
4E-\	gau-	.	8.G\L	Vir-	1.r	.	2.r	.
.	.	.	32A-\LL	.	.	.	.	.
.	.	.	32B-\JJJ	.	.	.	.	.
8E-\	-de	.	8E-/	-go	.	.	.	.
8E-\L	Vir-	.	8E-/L	glo-	.	.	.	.
8D-\J	.	.	8F/J	.	.	.	.	.
8BB-/	-go	.	8G/	-ri-	.	.	.	.
=18	=18	=18	=18	=18	=18	=18	=18	=18
!	!	!	!	!	!LO:TX:a:t=3.	!	!LO:TX:a:t=1.	!
4AA-/	Vir-	.	8A-\L	-o-	.	.	4r	.
.	.	.	32qqB-/LLL	.	.	.	.	.
.	.	.	32qqA-/	.	.	.	.	.
.	.	.	32qqG/	.	.	.	.	.
.	.	.	32qqA-/JJJ	.	.	.	.	.
.	.	.	8c\J	.	.	.	.	.
8A-\	-go	.	2e-\	.	.	.	8r	.
8A-\L	su-	.	.	.	.	.	8cc\	su-
8d-\J	.	.	.	.	.	.	8b-\L	.
8c\	-per	.	.	.	.	.	8a-\J	-per
!	!	!	!	!	!	!	!LO:LB:g=original	!
=19	=19	=19	=19	=19	=19	=19	=19	=19
8.B-\L	om-	.	2.e-\	.	2.r	.	8.g\L	om-
32c\LL	.	.	.	.	.	.	32a-\LL	.
32d-\JJJ	-ne	.	.	.	.	.	32b-\JJJ	.
8G\	spe-	.	.	.	.	.	8e-/	-nes
8G\L	.	.	.	.	.	.	8e-/L	spe-
8A-\J	.	.	.	.	.	.	8f/	.
8B-\	-ti-	.	.	.	.	.	8g/J	-ti-
!	!	!	!LO:LB:g=original	!	!	!	!	!
=20	=20	=20	=20	=20	=20	=20	=20	=20
4c\	-o-	.	4e-\	-sa,	4r	.	4a-\	-o-
.	.	.	.	.	.	.	32qqb-/LLL	.
.	.	.	.	.	.	.	32qqa-/	.
.	.	.	.	.	.	.	32qqg/	.
.	.	.	.	.	.	.	32qqa-/JJJ	.
4A-\	-sa,	.	8r	.	8r	.	2ee-\	.
.	.	.	8e-\	va-	8cc\	va-	.	.
4r	.	.	8d-\	-le	8b-\	-le	.	.
.	.	.	8c\	o	8a-\	o	.	.
!LO:LB:g=original	!	!	!	!	!	!	!	!
=21	=21	=21	=21	=21	=21	=21	=21	=21
4E-\	val-	.	8.B-\L	val-	8.g\L	val-	2.ee-\	.
.	.	.	32c\LL	.	32a-\LL	.	.	.
.	.	.	32d-\JJJ	.	32b-\JJJ	.	.	.
4E-\	-de	.	8G/	-de,	8e-\	-de	.	.
.	.	.	8G/	val-	8e-\L	de-	.	.
4E-\	de-	.	8A-\	-de	8f\	.	.	.
.	.	.	8B-\	de-	8g\J	.	.	.
!	!	!	!	!	!LO:LB:g=original	!	!	!
=22	=22	=22	=22	=22	=22	=22	=22	=22
4A-\	-co-	.	8c\L	-co-	8.a-\L	-co-	4ee-\	-sa
.	.	.	32qqd-/LLL	.	.	.	.	.
.	.	.	32qqc/	.	.	.	.	.
.	.	.	32qqB-/	.	.	.	.	.
.	.	.	32qqc/JJJ	.	.	.	.	.
.	.	.	8d-\J	.	.	.	.	.
!	!	!	!	!	!LO:N:vis=16	!	!	!
.	.	.	.	.	32b-\LL	-ra	.	.
!	!	!	!	!	!LO:N:vis=8	!	!	!
.	.	.	.	.	32cc\JJJ	.	.	.
8A-\	-ra	.	2e-\	.	8r	.	8r	.
4E-\	et	.	.	.	4g\	et	4b-\	et
8E-\	pro	.	.	.	8g\	pro	8b-\	pro
=23	=23	=23	=23	=23	=23	=23	=23	=23
4A-\	no-	.	4e-\	-ra,	8.a-\L	no-	4cc\	no-
.	.	.	.	.	16b-\Jk	.	.	.
.	.	.	.	.	.	.	32qqdd-/LLL	.
.	.	.	.	.	.	.	32qqcc/	.
.	.	.	.	.	.	.	32qqb-/	.
.	.	.	.	.	.	.	32qqcc/JJJ	.
8A-\	-bis	.	8r	.	8cc\	-bis	2ee-\	.
8E-\	Chris-	.	4B-\	et	8g\	Chris-	.	.
8E-\	-tum	.	.	.	8g\	-tum	.	.
8E-\	ex	.	8B-\	pro	8g\	ex	.	.
!	!	!	!LO:LB:g=original	!	!	!	!LO:LB:g=original	!
=24	=24	=24	=24	=24	=24	=24	=24	=24
4A-\	o-	.	8.c\L	no-	8.a-\L	o-	4ee-\	-bis
.	.	.	16d-\Jk	.	16b-\Jk	.	.	.
8A-\	-ra,	.	2e-\	-bis	8cc\	-ra	8r	.
8A-\	pro	.	.	.	8a-\	pro	8cc\	pro
8A-\	no-	.	.	.	8a-\	no-	8cc\	no-
8A-\	-bis	.	.	.	8a-\	-bis	8cc\	-bis
!LO:LB:g=original	!	!	!	!	!LO:LB:g=original	!	!	!
=25	=25	=25	=25	=25	=25	=25	=25	=25
!LO:TX:a:t=P:problem=ozn. dynamiki na pięciolinii	!	!LO:DY:b:t=f&colon;	!	!	!	!	!	!
2.F\	Chris-	f	2.e-\	Chri-	2.an\	Chri-	2ff\	Chri-
.	.	.	.	.	.	.	4cc\	.
=26	=26	=26	=26	=26	=26	=26	=26	=26
4B-\	-tum	.	4d-\	-stum,	4b-\	-stum	4ff\	-stum
8r	.	.	8r	.	8r	.	8r	.
8BB-/	Chri-	.	8B-\	Chri-	8f\	Chri-	8dd-\	Chris-
8C/	-stum	.	8An\	-stum	8e-\	-stum	8cc\	-tum
8D-/	ex	.	8B-\	ex	8d-\	ex	8cc\	ex
=27	=27	=27	=27	=27	=27	=27	=27	=27
2.E-\	o-	.	2e-\	o-	2c\	o-	2a-\	o-
.	.	.	4d-\	.	4B-/	.	4g\	.
=28:|!	=28:|!	=28:|!	=28:|!	=28:|!	=28:|!	=28:|!	=28:|!	=28:|!
*>C	*	*	*>C	*	*>C	*	*>C	*
4F\	-ra,	.	4c\	-ra,	4A-/	-ra	4a-\	-ra.
4r	.	.	4r	.	8a-\	et	4r	.
.	.	.	.	.	8a-\	pro	.	.
4r	.	.	4r	.	8a-\	no-	4r	.
.	.	.	.	.	8a-\	-bis	.	.
!	!	!	!LO:LB:g=original	!	!	!	!LO:LB:g=original	!
=29	=29	=29	=29	=29	=29	=29	=29	=29
4F-X\	Chri-	.	4d-\	Chris-	4a-\	Chris-	4dd-\	Chri-
4E-\	-stum	.	4e-\	-tum	4a-\	-tum	4cc\	-stum
!	!	!	!	!	!LO:LB:g=original	!	!	!
4Dn\	ex	.	4B-\	ex	4a-\	ex	4ff\	ex
!LO:LB:g=original	!	!	!	!	!	!	!	!
=30	=30	=30	=30	=30	=30	=30	=30	=30
2.E-\	o-	.	2.c\	o-	2.a-\	o-	2.ee-\	o-
=31	=31	=31	=31	=31	=31	=31	=31	=31
2.E-\	.	.	2B-;\	.	2g;\	.	4ee-\	.
.	.	.	.	.	.	.	4ff\	.
.	.	.	4d-\	.	4e-\	.	4g\	.
=32	=32	=32	=32	=32	=32	=32	=32	=32
4AA-/	-ra.	.	4c\	-ra.	4e-\	-ra.	4a-\	-ra.
4r	.	.	4r	.	4r	.	4r	.
!LO:TX:b:i:t=Volti Seque No 8.	!	!	!	!	!	!	!	!
4r	.	.	4r	.	4r	.	4r	.
==	==	==	==	==	==	==	==	==
*-	*-	*-	*-	*-	*-	*-	*-	*-
!!!system-decoration: [(g1)]
!!!ENC: Anna Matuszewska
!!!END: 2021-01-18
!!!ENC: Mateusz Solarz
!!!END: 2021-01-14
